exported-svg/zap.svg

<svg height="24" viewBox="0 0 24 24" width="24" xmlns="http://www.w3.org/2000/svg"><path d="m10.9345645 14.0016191-.9297479 7.4379826c-.06192709.4954171.5606232.7656614.8802496.3821096l10-12c.2713862-.32566346.0398082-.8200922-.3841106-.8200922h-8.4336089l.9297478-7.43798264c.0619271-.49541705-.5606231-.76566132-.8802496-.38210956l-9.99999996 12c-.27138622.3256635-.03980819.8200922.38411064.8200922zm.0702521-4.56201737c-.0373033.29842657.19539.56201737.496139.56201737h7.9324792l-8.2248095 9.8697714.7884692-6.307754c.0373033-.2984266-.1953899-.5620174-.4961389-.5620174h-7.93247922l8.22480952-9.86977142z"/></svg>

<?xml version="1.0" encoding="UTF-8"?>
<svg width="24px" height="24px" viewBox="0 0 24 24" version="1.1" xmlns="http://www.w3.org/2000/svg" xmlns:xlink="http://www.w3.org/1999/xlink">
    <!-- Generator: Sketch 55.2 (78181) - https://sketchapp.com -->
    <title>zap</title>
    <desc>Created with Sketch.</desc>
    <g id="zap" stroke="none" stroke-width="1" fill="none" fill-rule="evenodd">
        <path d="M10.9345645,14.0016191 L10.0048166,21.4396017 C9.94288951,21.9350188 10.5654398,22.2052631 10.8850662,21.8217113 L20.8850662,9.8217113 C21.1564524,9.49604784 20.9248744,9.0016191 20.5009556,9.0016191 L12.0673467,9.0016191 L12.9970945,1.56363646 C13.0590216,1.06821941 12.4364714,0.797975138 12.1168449,1.1815269 L2.11684494,13.1815269 C1.84545872,13.5071904 2.07703675,14.0016191 2.50095558,14.0016191 L10.9345645,14.0016191 Z M11.0048166,9.43960173 C10.9675133,9.7380283 11.2002066,10.0016191 11.5009556,10.0016191 L19.4334348,10.0016191 L11.2086253,19.8713905 L11.9970945,13.5636365 C12.0343978,13.2652099 11.8017046,13.0016191 11.5009556,13.0016191 L3.56847638,13.0016191 L11.7932859,3.13184768 L11.0048166,9.43960173 Z" id="Path" fill="#000000" fill-rule="nonzero"></path>
    </g>
</svg>
